covers/svg/cover-ruby.svg

<svg xmlns="http://www.w3.org/2000/svg" width="1280" height="640" fill="none"><path fill="#EDEFF3" d="M0 0h1280v640H0z"/><path fill="#1A1A1A" d="M1139.65 596h-9.85v-1.699l6.55-9.153h-6.15v-2.121h9.26v1.875l-6.42 8.977h6.61zm7.97-13.219c1.16 0 2.15.239 2.98.715.83.477 1.46 1.152 1.91 2.027.44.875.67 1.922.67 3.141v1.477h-8.66c.03 1.257.36 2.226 1 2.906.65.68 1.56 1.019 2.72 1.019.83 0 1.57-.078 2.23-.234.66-.164 1.35-.402 2.05-.715v2.238q-.975.458-1.98.668c-.67.141-1.48.211-2.42.211q-1.905 0-3.36-.738c-.96-.5-1.71-1.242-2.26-2.226q-.81-1.478-.81-3.668c0-1.454.25-2.688.74-3.704q.735-1.523 2.07-2.32t3.12-.797m0 2.074c-.87 0-1.57.282-2.11.844-.53.563-.84 1.387-.94 2.473h5.91q-.015-.973-.33-1.723c-.2-.5-.51-.89-.94-1.172q-.615-.422-1.59-.422m15.24-2.074c.21 0 .45.012.71.035s.48.055.67.094l-.26 2.578a3.4 3.4 0 0 0-.61-.105 6 6 0 0 0-.63-.035q-.735 0-1.41.246c-.44.156-.84.398-1.18.726-.35.321-.61.723-.81 1.207s-.29 1.047-.29 1.688V596h-2.77v-12.973h2.16l.37 2.285h.13q.39-.69.96-1.265c.39-.383.82-.688 1.31-.914a3.8 3.8 0 0 1 1.65-.352m15.26 6.703q0 1.618-.42 2.871-.42 1.254-1.23 2.122a5.4 5.4 0 0 1-1.94 1.312c-.76.297-1.62.445-2.57.445-.89 0-1.71-.148-2.45-.445a5.5 5.5 0 0 1-1.93-1.312q-.81-.868-1.26-2.122c-.29-.835-.44-1.793-.44-2.871 0-1.429.24-2.64.74-3.632q.75-1.5 2.13-2.286c.92-.523 2.02-.785 3.29-.785 1.2 0 2.25.262 3.17.785.91.524 1.63 1.286 2.14 2.286.52 1 .77 2.21.77 3.632m-9.41 0c0 .946.12 1.754.34 2.426q.36 1.008 1.08 1.547c.49.352 1.11.527 1.88.527.76 0 1.39-.175 1.87-.527.49-.359.84-.875 1.07-1.547s.34-1.48.34-2.426c0-.945-.11-1.746-.34-2.402-.23-.664-.58-1.168-1.07-1.512-.48-.351-1.11-.527-1.88-.527-1.14 0-1.98.383-2.5 1.148-.52.766-.79 1.864-.79 3.293m19.24-6.703c1.53 0 2.77.563 3.7 1.688.94 1.125 1.4 2.797 1.4 5.015 0 1.469-.21 2.707-.65 3.715-.43 1-1.04 1.758-1.82 2.274q-1.155.76-2.7.761c-.66 0-1.23-.086-1.72-.257a4.4 4.4 0 0 1-1.24-.668 5 5 0 0 1-.87-.914h-.16c.04.312.07.66.11 1.043.04.374.05.718.05 1.031v5.285h-2.76v-18.727h2.25l.39 1.793h.12c.25-.367.54-.707.88-1.019.36-.313.78-.559 1.27-.739.5-.187 1.08-.281 1.75-.281m-.74 2.25q-1.14 0-1.83.457c-.45.297-.79.746-1 1.348q-.3.902-.33 2.262v.386q0 1.442.3 2.45.3.995.99 1.523c.47.344 1.11.516 1.9.516.67 0 1.23-.184 1.67-.551q.66-.551.99-1.57t.33-2.403q0-2.097-.75-3.258c-.49-.773-1.25-1.16-2.27-1.16m17.75 7.266c0 .851-.21 1.57-.62 2.156s-1.02 1.031-1.82 1.336c-.79.297-1.75.445-2.9.445-.91 0-1.69-.066-2.35-.199a8 8 0 0 1-1.84-.586v-2.379c.62.289 1.31.539 2.08.75q1.155.317 2.19.317c.91 0 1.56-.141 1.96-.422.39-.289.59-.672.59-1.149q0-.421-.24-.75c-.16-.226-.46-.457-.89-.691-.43-.242-1.07-.531-1.9-.867-.82-.328-1.51-.656-2.08-.985-.56-.328-.98-.722-1.27-1.183-.29-.469-.44-1.067-.44-1.793 0-1.149.46-2.02 1.36-2.613.92-.602 2.12-.903 3.62-.903q1.2 0 2.25.246c.72.157 1.41.387 2.09.692l-.87 2.074q-.87-.387-1.77-.633a6.3 6.3 0 0 0-1.79-.258c-.71 0-1.25.11-1.63.328-.37.219-.55.532-.55.938q0 .457.27.773.27.317.93.633c.44.211 1.06.473 1.85.785.77.297 1.44.61 2 .938.57.32 1.01.715 1.31 1.183.31.469.46 1.075.46 1.817m2.58 2.25c0-.641.16-1.09.49-1.348.34-.265.74-.398 1.22-.398s.88.133 1.22.398q.51.387.51 1.348 0 .938-.51 1.359c-.34.274-.74.41-1.22.41s-.88-.136-1.22-.41c-.33-.281-.49-.734-.49-1.359m9.74-11.52V596h-2.76v-12.973zm-1.36-4.968c.42 0 .78.113 1.09.339s.47.618.47 1.172c0 .547-.16.938-.47 1.172-.31.227-.67.34-1.09.34-.44 0-.81-.113-1.12-.34-.29-.234-.44-.625-.44-1.172 0-.554.15-.945.44-1.172.31-.226.68-.339 1.12-.339m16.79 11.425q0 1.618-.42 2.871-.42 1.254-1.23 2.122a5.4 5.4 0 0 1-1.95 1.312c-.75.297-1.61.445-2.56.445-.89 0-1.71-.148-2.45-.445a5.7 5.7 0 0 1-1.94-1.312c-.54-.579-.95-1.286-1.25-2.122q-.45-1.253-.45-2.871c0-1.429.25-2.64.74-3.632.5-1 1.21-1.762 2.14-2.286.92-.523 2.02-.785 3.29-.785 1.19 0 2.25.262 3.16.785.92.524 1.63 1.286 2.15 2.286.51 1 .77 2.21.77 3.632m-9.41 0c0 .946.11 1.754.34 2.426.24.672.59 1.188 1.08 1.547.48.352 1.11.527 1.87.527.77 0 1.39-.175 1.88-.527.48-.359.84-.875 1.07-1.547.22-.672.34-1.48.34-2.426 0-.945-.12-1.746-.34-2.402-.23-.664-.59-1.168-1.07-1.512-.49-.351-1.11-.527-1.89-.527q-1.71 0-2.49 1.148c-.53.766-.79 1.864-.79 3.293"/><path fill="#323232" d="m337.596 179.457-96.358 36.828A22.43 22.43 0 0 0 227 237.194v92.714l44.283-25.449v-52.131l74.217-28.475V178c-2.701.006-5.379.5-7.904 1.457M272.068 387.085l73.432-42.322v-51.121l-113.455 65.415a10.21 10.21 0 0 0-5.045 8.745v34.249a22.4 22.4 0 0 0 3.952 12.522 22.4 22.4 0 0 0 10.286 8.162l96.358 36.828a22.4 22.4 0 0 0 7.904 1.458v-45.853z"/><path fill="#1A1A1A" d="M459.291 279.066a9.36 9.36 0 0 0 4.709-8.24v-33.632a22.43 22.43 0 0 0-14.238-20.909l-96.414-36.828A22.4 22.4 0 0 0 345.5 178v45.853l72.871 28.027-72.871 41.985v51.122zM353.348 459.563l96.414-36.828A22.43 22.43 0 0 0 464 402.051v-93.667l-44.284 25.561v52.859L345.5 415.168v45.853a22.4 22.4 0 0 0 7.848-1.458"/><path fill="#939393" d="m670 295.553-6.043-6.043L640 313.467l-23.957-23.957-6.043 6.043 23.957 23.957L610 343.467l6.043 6.043L640 325.553l23.957 23.957 6.043-6.043-23.957-23.957z"/><path fill="#A00403" d="M1038.78 425.748 1053 250.023l-54.919 107.331-133.651 80.464c55.137-3.87 116.74-8.094 174.36-12.043z"/><path fill="#B11205" d="m1049.47 276.876-70.498-55.218-18.411 63.417c74.869 6.353 62.569-6.578 88.909-8.199m-157.78 70.251 92.737 29.322-23.866-91.374zm-60.688 12.957c30.003 94.783 37.504 115.24 60.688-12.957l-61.37 14.32zm117.967-158.883 66.141.682-36.138 19.775c-7.501-4.773-24.548-16.365-30.003-20.457M818.728 322.579 816 390.087l15.684-29.322zm145.243-109.786c17.729 17.73-.682 60.689-36.141 95.466s-80.463 56.598-98.192 38.868c-17.047-17.654.477-61.37 36.038-96.147s81.281-55.916 98.329-38.187z"/><path fill="#9F0D02" d="m891.692 347.127 90.692 29.322c-32.731 30.685-93.76 58.984-117.967 61.37z"/><path fill="#891102" d="m960.562 285.073 22.502 90.692c27.276-28.64 51.826-60.007 64.096-98.193zm78.218 140.675-14.11-103.853-41.606 53.87z"/><path fill="#AA1401" d="M1047.84 278.254c8.87-27.958 10.91-68.872-32.73-76.373l-36.137 19.775z"/><path fill="#9E1209" d="M816 390.085c1.364 46.369 34.095 47.051 48.414 47.733l-33.412-77.054z"/><path fill="#900E04" d="m891.692 347.127 36.822 70.236c21.821-11.593 38.868-25.913 53.87-41.596z"/><path fill="#8B1104" d="m831.002 360.764-5.455 62.053c9.546 13.638 23.184 14.32 37.504 13.638-10.228-25.23-30.685-76.373-32.049-75.691"/></svg>

<svg width="1280" height="640" viewBox="0 0 1280 640" fill="none" xmlns="http://www.w3.org/2000/svg">
<rect width="1280" height="640" fill="#EDEFF3"/>
<path d="M1139.65 596H1129.8V594.301L1136.35 585.148H1130.2V583.027H1139.46V584.902L1133.04 593.879H1139.65V596ZM1147.62 582.781C1148.78 582.781 1149.77 583.02 1150.6 583.496C1151.43 583.973 1152.06 584.648 1152.51 585.523C1152.95 586.398 1153.18 587.445 1153.18 588.664V590.141H1144.52C1144.55 591.398 1144.88 592.367 1145.52 593.047C1146.17 593.727 1147.08 594.066 1148.24 594.066C1149.07 594.066 1149.81 593.988 1150.47 593.832C1151.13 593.668 1151.82 593.43 1152.52 593.117V595.355C1151.87 595.66 1151.21 595.883 1150.54 596.023C1149.87 596.164 1149.06 596.234 1148.12 596.234C1146.85 596.234 1145.73 595.988 1144.76 595.496C1143.8 594.996 1143.05 594.254 1142.5 593.27C1141.96 592.285 1141.69 591.062 1141.69 589.602C1141.69 588.148 1141.94 586.914 1142.43 585.898C1142.92 584.883 1143.61 584.109 1144.5 583.578C1145.39 583.047 1146.43 582.781 1147.62 582.781ZM1147.62 584.855C1146.75 584.855 1146.05 585.137 1145.51 585.699C1144.98 586.262 1144.67 587.086 1144.57 588.172H1150.48C1150.47 587.523 1150.36 586.949 1150.15 586.449C1149.95 585.949 1149.64 585.559 1149.21 585.277C1148.8 584.996 1148.27 584.855 1147.62 584.855ZM1162.86 582.781C1163.07 582.781 1163.31 582.793 1163.57 582.816C1163.83 582.84 1164.05 582.871 1164.24 582.91L1163.98 585.488C1163.82 585.441 1163.61 585.406 1163.37 585.383C1163.14 585.359 1162.93 585.348 1162.74 585.348C1162.25 585.348 1161.78 585.43 1161.33 585.594C1160.89 585.75 1160.49 585.992 1160.15 586.32C1159.8 586.641 1159.54 587.043 1159.34 587.527C1159.14 588.012 1159.05 588.574 1159.05 589.215V596H1156.28V583.027H1158.44L1158.81 585.312H1158.94C1159.2 584.852 1159.52 584.43 1159.9 584.047C1160.29 583.664 1160.72 583.359 1161.21 583.133C1161.71 582.898 1162.26 582.781 1162.86 582.781ZM1178.12 589.484C1178.12 590.562 1177.98 591.52 1177.7 592.355C1177.42 593.191 1177.01 593.898 1176.47 594.477C1175.93 595.047 1175.29 595.484 1174.53 595.789C1173.77 596.086 1172.91 596.234 1171.96 596.234C1171.07 596.234 1170.25 596.086 1169.51 595.789C1168.77 595.484 1168.12 595.047 1167.58 594.477C1167.04 593.898 1166.62 593.191 1166.32 592.355C1166.03 591.52 1165.88 590.562 1165.88 589.484C1165.88 588.055 1166.12 586.844 1166.62 585.852C1167.12 584.852 1167.83 584.09 1168.75 583.566C1169.67 583.043 1170.77 582.781 1172.04 582.781C1173.24 582.781 1174.29 583.043 1175.21 583.566C1176.12 584.09 1176.84 584.852 1177.35 585.852C1177.87 586.852 1178.12 588.062 1178.12 589.484ZM1168.71 589.484C1168.71 590.43 1168.83 591.238 1169.05 591.91C1169.29 592.582 1169.65 593.098 1170.13 593.457C1170.62 593.809 1171.24 593.984 1172.01 593.984C1172.77 593.984 1173.4 593.809 1173.88 593.457C1174.37 593.098 1174.72 592.582 1174.95 591.91C1175.18 591.238 1175.29 590.43 1175.29 589.484C1175.29 588.539 1175.18 587.738 1174.95 587.082C1174.72 586.418 1174.37 585.914 1173.88 585.57C1173.4 585.219 1172.77 585.043 1172 585.043C1170.86 585.043 1170.02 585.426 1169.5 586.191C1168.98 586.957 1168.71 588.055 1168.71 589.484ZM1187.95 582.781C1189.48 582.781 1190.72 583.344 1191.65 584.469C1192.59 585.594 1193.05 587.266 1193.05 589.484C1193.05 590.953 1192.84 592.191 1192.4 593.199C1191.97 594.199 1191.36 594.957 1190.58 595.473C1189.81 595.98 1188.91 596.234 1187.88 596.234C1187.22 596.234 1186.65 596.148 1186.16 595.977C1185.68 595.805 1185.27 595.582 1184.92 595.309C1184.58 595.027 1184.29 594.723 1184.05 594.395H1183.89C1183.93 594.707 1183.96 595.055 1184 595.438C1184.04 595.812 1184.05 596.156 1184.05 596.469V601.754H1181.29V583.027H1183.54L1183.93 584.82H1184.05C1184.3 584.453 1184.59 584.113 1184.93 583.801C1185.29 583.488 1185.71 583.242 1186.2 583.062C1186.7 582.875 1187.28 582.781 1187.95 582.781ZM1187.21 585.031C1186.45 585.031 1185.84 585.184 1185.38 585.488C1184.93 585.785 1184.59 586.234 1184.38 586.836C1184.18 587.438 1184.07 588.191 1184.05 589.098V589.484C1184.05 590.445 1184.15 591.262 1184.35 591.934C1184.55 592.598 1184.88 593.105 1185.34 593.457C1185.81 593.801 1186.45 593.973 1187.24 593.973C1187.91 593.973 1188.47 593.789 1188.91 593.422C1189.35 593.055 1189.68 592.531 1189.9 591.852C1190.12 591.172 1190.23 590.371 1190.23 589.449C1190.23 588.051 1189.98 586.965 1189.48 586.191C1188.99 585.418 1188.23 585.031 1187.21 585.031ZM1204.96 592.297C1204.96 593.148 1204.75 593.867 1204.34 594.453C1203.93 595.039 1203.32 595.484 1202.52 595.789C1201.73 596.086 1200.77 596.234 1199.62 596.234C1198.71 596.234 1197.93 596.168 1197.27 596.035C1196.62 595.91 1196.01 595.715 1195.43 595.449V593.07C1196.05 593.359 1196.74 593.609 1197.51 593.82C1198.28 594.031 1199.01 594.137 1199.7 594.137C1200.61 594.137 1201.26 593.996 1201.66 593.715C1202.05 593.426 1202.25 593.043 1202.25 592.566C1202.25 592.285 1202.17 592.035 1202.01 591.816C1201.85 591.59 1201.55 591.359 1201.12 591.125C1200.69 590.883 1200.05 590.594 1199.22 590.258C1198.4 589.93 1197.71 589.602 1197.14 589.273C1196.58 588.945 1196.16 588.551 1195.87 588.09C1195.58 587.621 1195.43 587.023 1195.43 586.297C1195.43 585.148 1195.89 584.277 1196.79 583.684C1197.71 583.082 1198.91 582.781 1200.41 582.781C1201.21 582.781 1201.96 582.863 1202.66 583.027C1203.38 583.184 1204.07 583.414 1204.75 583.719L1203.88 585.793C1203.3 585.535 1202.71 585.324 1202.11 585.16C1201.53 584.988 1200.93 584.902 1200.32 584.902C1199.61 584.902 1199.07 585.012 1198.69 585.23C1198.32 585.449 1198.14 585.762 1198.14 586.168C1198.14 586.473 1198.23 586.73 1198.41 586.941C1198.59 587.152 1198.9 587.363 1199.34 587.574C1199.78 587.785 1200.4 588.047 1201.19 588.359C1201.96 588.656 1202.63 588.969 1203.19 589.297C1203.76 589.617 1204.2 590.012 1204.5 590.48C1204.81 590.949 1204.96 591.555 1204.96 592.297ZM1207.54 594.547C1207.54 593.906 1207.7 593.457 1208.03 593.199C1208.37 592.934 1208.77 592.801 1209.25 592.801C1209.73 592.801 1210.13 592.934 1210.47 593.199C1210.81 593.457 1210.98 593.906 1210.98 594.547C1210.98 595.172 1210.81 595.625 1210.47 595.906C1210.13 596.18 1209.73 596.316 1209.25 596.316C1208.77 596.316 1208.37 596.18 1208.03 595.906C1207.7 595.625 1207.54 595.172 1207.54 594.547ZM1217.28 583.027V596H1214.52V583.027H1217.28ZM1215.92 578.059C1216.34 578.059 1216.7 578.172 1217.01 578.398C1217.32 578.625 1217.48 579.016 1217.48 579.57C1217.48 580.117 1217.32 580.508 1217.01 580.742C1216.7 580.969 1216.34 581.082 1215.92 581.082C1215.48 581.082 1215.11 580.969 1214.8 580.742C1214.51 580.508 1214.36 580.117 1214.36 579.57C1214.36 579.016 1214.51 578.625 1214.8 578.398C1215.11 578.172 1215.48 578.059 1215.92 578.059ZM1232.71 589.484C1232.71 590.562 1232.57 591.52 1232.29 592.355C1232.01 593.191 1231.6 593.898 1231.06 594.477C1230.52 595.047 1229.87 595.484 1229.11 595.789C1228.36 596.086 1227.5 596.234 1226.55 596.234C1225.66 596.234 1224.84 596.086 1224.1 595.789C1223.36 595.484 1222.71 595.047 1222.16 594.477C1221.62 593.898 1221.21 593.191 1220.91 592.355C1220.61 591.52 1220.46 590.562 1220.46 589.484C1220.46 588.055 1220.71 586.844 1221.2 585.852C1221.7 584.852 1222.41 584.09 1223.34 583.566C1224.26 583.043 1225.36 582.781 1226.63 582.781C1227.82 582.781 1228.88 583.043 1229.79 583.566C1230.71 584.09 1231.42 584.852 1231.94 585.852C1232.45 586.852 1232.71 588.062 1232.71 589.484ZM1223.3 589.484C1223.3 590.43 1223.41 591.238 1223.64 591.91C1223.88 592.582 1224.23 593.098 1224.72 593.457C1225.2 593.809 1225.83 593.984 1226.59 593.984C1227.36 593.984 1227.98 593.809 1228.47 593.457C1228.95 593.098 1229.31 592.582 1229.54 591.91C1229.76 591.238 1229.88 590.43 1229.88 589.484C1229.88 588.539 1229.76 587.738 1229.54 587.082C1229.31 586.418 1228.95 585.914 1228.47 585.57C1227.98 585.219 1227.36 585.043 1226.58 585.043C1225.44 585.043 1224.61 585.426 1224.09 586.191C1223.56 586.957 1223.3 588.055 1223.3 589.484Z" fill="#1A1A1A"/>
<path d="M337.596 179.457L241.238 216.285C237.036 217.933 233.429 220.81 230.889 224.54C228.349 228.27 226.993 232.681 227 237.194V329.908L271.283 304.459V252.328L345.5 223.853V178C342.799 178.006 340.121 178.5 337.596 179.457Z" fill="#323232"/>
<path d="M272.068 387.085L345.5 344.763V293.642L232.045 359.057C230.518 359.952 229.25 361.229 228.365 362.762C227.48 364.295 227.01 366.032 227 367.802V402.051C227.038 406.526 228.414 410.887 230.952 414.573C233.489 418.26 237.072 421.102 241.238 422.735L337.596 459.563C340.121 460.521 342.799 461.015 345.5 461.021V415.168L272.068 387.085Z" fill="#323232"/>
<path d="M459.291 279.066C460.739 278.237 461.939 277.036 462.767 275.587C463.595 274.139 464.02 272.495 464 270.826V237.194C464.006 232.68 462.651 228.27 460.111 224.54C457.57 220.81 453.963 217.933 449.762 216.285L353.348 179.457C350.84 178.506 348.182 178.013 345.5 178V223.853L418.371 251.88L345.5 293.865V344.987L459.291 279.066Z" fill="#1A1A1A"/>
<path d="M353.348 459.563L449.762 422.735C453.928 421.102 457.51 418.259 460.048 414.573C462.585 410.887 463.961 406.526 464 402.051V308.384L419.716 333.945V386.804L345.5 415.168V461.021C348.182 461.008 350.84 460.514 353.348 459.563Z" fill="#1A1A1A"/>
<path d="M670 295.553L663.957 289.51L640 313.467L616.043 289.51L610 295.553L633.957 319.51L610 343.467L616.043 349.51L640 325.553L663.957 349.51L670 343.467L646.043 319.51L670 295.553Z" fill="#939393"/>
<path d="M1038.78 425.748L1053 250.023L998.081 357.354L864.43 437.818C919.567 433.948 981.17 429.724 1038.79 425.775L1038.78 425.748Z" fill="#A00403"/>
<path d="M1049.47 276.876L978.972 221.658L960.561 285.075C1035.43 291.428 1023.13 278.497 1049.47 276.876ZM891.69 347.127L984.427 376.449L960.561 285.075L891.69 347.127ZM831.002 360.084C861.005 454.867 868.506 475.324 891.69 347.127L830.32 361.447L831.002 360.084ZM948.969 201.201L1015.11 201.883L978.972 221.658C971.471 216.885 954.424 205.293 948.969 201.201ZM818.728 322.579L816 390.087L831.684 360.765L818.728 322.579ZM963.971 212.793C981.7 230.523 963.289 273.482 927.83 308.259C892.372 343.036 847.367 364.857 829.638 347.127C812.591 329.473 830.115 285.757 865.676 250.98C901.237 216.203 946.957 195.064 964.005 212.793H963.971Z" fill="#B11205"/>
<path d="M891.692 347.127L982.384 376.449C949.653 407.134 888.624 435.433 864.417 437.819L891.692 347.127Z" fill="#9F0D02"/>
<path d="M960.562 285.073L983.064 375.765C1010.34 347.125 1034.89 315.758 1047.16 277.572L960.562 285.073ZM1038.78 425.748L1024.67 321.895L983.064 375.765L1038.78 425.748Z" fill="#891102"/>
<path d="M1047.84 278.254C1056.71 250.296 1058.75 209.382 1015.11 201.881L978.973 221.656L1047.84 278.254Z" fill="#AA1401"/>
<path d="M816 390.085C817.364 436.454 850.095 437.136 864.414 437.818L831.002 360.764L816 390.085Z" fill="#9E1209"/>
<path d="M891.692 347.127L928.514 417.363C950.335 405.77 967.382 391.45 982.384 375.767L891.692 347.127Z" fill="#900E04"/>
<path d="M831.002 360.764L825.547 422.817C835.093 436.455 848.731 437.137 863.051 436.455C852.823 411.225 832.366 360.082 831.002 360.764Z" fill="#8B1104"/>
</svg>
